dist/svgs/carbon-icons/svg/unlocked.svg

<svg xmlns="http://www.w3.org/2000/svg" fill-rule="evenodd" viewBox="0 0 18 24"><path d="M9 6.5c-1.6 0-3.1.4-4.4 1.2V6.5c0-2.3 2-4.4 4.4-4.4 1.2 0 2.3.5 3.1 1.3l1.5-1.5C12.4.8 10.8 0 9 0 5.5 0 2.5 3 2.5 6.5v3C1.1 11 .3 13 .3 15.3.3 20.1 4.2 24 9 24c4.8 0 8.7-3.9 8.7-8.7 0-4.8-3.9-8.8-8.7-8.8zm4 11.3l-1.5 1.5L9 16.8l-2.5 2.5L5 17.8l2.5-2.5L5 12.8l1.5-1.5L9 13.7l2.5-2.5 1.5 1.6-2.5 2.5 2.5 2.5z"/></svg>

<svg width="18px" height="24px" viewBox="0 0 18 24" version="1.1" xmlns="http://www.w3.org/2000/svg" xmlns:xlink="http://www.w3.org/1999/xlink" fill-rule="evenodd">
	<path d="M9,6.5 C7.4,6.5 5.9,6.9 4.6,7.7 L4.6,6.5 C4.6,4.2 6.6,2.1 9,2.1 C10.2,2.1 11.3,2.6 12.1,3.4 C12.6,2.9 13.2,2.3 13.6,1.9 C12.4,0.8 10.8,0 9,0 C5.5,0 2.5,3 2.5,6.5 L2.5,9.5 C1.1,11 0.3,13 0.3,15.3 C0.3,20.1 4.2,24 9,24 C13.8,24 17.7,20.1 17.7,15.3 C17.7,10.5 13.8,6.5 9,6.5 L9,6.5 Z M13,17.8 L11.5,19.3 L9,16.8 L6.5,19.3 L5,17.8 L7.5,15.3 L5,12.8 L6.5,11.3 L9,13.7 L11.5,11.2 L13,12.8 L10.5,15.3 L13,17.8 L13,17.8 Z" id="Shape" fill="#000000"></path>
</svg>
